apps/scalable/claws-mail.svg

<svg height="48" width="48" xmlns="http://www.w3.org/2000/svg" xmlns:xlink="http://www.w3.org/1999/xlink"><linearGradient id="a" gradientTransform="matrix(1.0155171 0 0 .88638161 -65.086805 59.629401)" gradientUnits="userSpaceOnUse" x1="466.37592" x2="466.48874" y1="542.6795" y2="502.37723"><stop offset="0" stop-color="#197df1"/><stop offset="1" stop-color="#20bcfa"/></linearGradient><linearGradient gradientUnits="userSpaceOnUse" x1="258.65744" x2="257.50476" y1="1.707616" y2="564.00525"><stop offset="0" stop-color="#333"/><stop offset="1" stop-color="#353535"/></linearGradient><linearGradient id="b" gradientUnits="userSpaceOnUse" x1="258.65744" x2="257.50476" y1="1.707616" y2="564.00525"><stop offset="0" stop-color="#e9e9e9"/><stop offset="1" stop-color="#f9f9f9"/></linearGradient><path d="m418 467.5c0 9.979 8.175 18.289 19 20.12v27.76c-10.825 1.831-19 10.141-19 20.12s8.175 18.289 19 20.12v29.38h-24.228c-1.474-11.318-9.988-20-20.272-20s-18.798 8.682-20.272 20h-27.456c-1.474-11.318-9.988-20-20.272-20s-18.798 8.682-20.272 20h-23.608c-1.832-10.825-10.141-19-20.12-19s-18.288 8.175-20.12 19h-27.76c-1.831-10.825-10.141-19-20.12-19s-18.289 8.175-20.12 19h-21.76c-1.831-10.825-10.141-19-20.12-19s-18.289 8.175-20.12 19h-27.76c-1.831-10.825-10.141-19-20.12-19s-18.289 8.175-20.12 19h-24.38v-32.38c10.825-1.832 19-10.141 19-20.12s-8.175-18.288-19-20.12v-25.426c12.279-.676 22-9.572 22-20.454s-9.721-19.778-22-20.454v-25.163c11.803-1.089 21-9.798 21-20.383s-9.197-19.294-21-20.383v-21.163c.497.027.996.046 1.5.046 12.979 0 23.5-9.178 23.5-20.5s-10.521-20.5-23.5-20.5c-.504 0-1.003.019-1.5.046v-26.162c11.803-1.09 21-9.799 21-20.384s-9.197-19.294-21-20.384v-28.344c11.318-1.474 20-9.988 20-20.272s-8.682-18.798-20-20.272v-27.274c12.279-.676 22-9.572 22-20.454s-9.721-19.778-22-20.454v-25.092c12.279-.676 22-9.572 22-20.454s-9.721-19.778-22-20.454v-27.046h22.228c-.149 1.143-.228 2.311-.228 3.5 0 12.979 9.178 23.5 20.5 23.5s20.5-10.521 20.5-23.5c0-1.189-.079-2.357-.228-3.5h27.456c-.149 1.143-.228 2.311-.228 3.5 0 12.979 9.178 23.5 20.5 23.5s20.5-10.521 20.5-23.5c0-1.189-.079-2.357-.228-3.5h21.456c-.149 1.143-.228 2.311-.228 3.5 0 12.979 9.178 23.5 20.5 23.5s20.5-10.521 20.5-23.5c0-1.189-.079-2.357-.228-3.5h27.456c-.149 1.143-.228 2.311-.228 3.5 0 12.979 9.178 23.5 20.5 23.5s20.5-10.521 20.5-23.5c0-1.189-.079-2.357-.228-3.5h23.344c-.075.821-.116 1.655-.116 2.5 0 12.979 9.178 23.5 20.5 23.5s20.5-10.521 20.5-23.5c0-.845-.041-1.679-.116-2.5h27.232c-.075.821-.116 1.655-.116 2.5 0 12.979 9.178 23.5 20.5 23.5s20.5-10.521 20.5-23.5c0-.845-.041-1.679-.116-2.5h26.116v27.116c-11.803 1.09-21 9.799-21 20.384s9.197 19.294 21 20.384v27.232c-11.803 1.09-21 9.799-21 20.384s9.197 19.294 21 20.384v24.232c-11.803 1.09-21 9.799-21 20.384s9.197 19.294 21 20.384v27.232c-11.803 1.09-21 9.799-21 20.384s9.197 19.294 21 20.384v23.233c-11.803 1.089-21 9.798-21 20.383s9.197 19.294 21 20.383v27.234c-11.803 1.089-21 9.798-21 20.383s9.197 19.294 21 20.383v25.497c-10.825 1.831-19 10.141-19 20.12" fill="url(#b)" transform="matrix(.093963726517 -.010745682911 -.008793144971 -.077123327814 5.437642817412 49.813012073681)"/><rect fill="url(#a)" height="36.075733" ry=".531829" transform="matrix(.985560999529 -.112708706223 .11237220789 .985599416862 -438.011826217655 -445.734705829515)" width="31.074825" x="393.59326" y="504.85712"/></svg>

<?xml version="1.0" encoding="UTF-8" standalone="no"?>
<!-- Created with Inkscape (http://www.inkscape.org/) -->

<svg
   xmlns:osb="http://www.openswatchbook.org/uri/2009/osb"
   xmlns:dc="http://purl.org/dc/elements/1.1/"
   xmlns:cc="http://creativecommons.org/ns#"
   xmlns:rdf="http://www.w3.org/1999/02/22-rdf-syntax-ns#"
   xmlns:svg="http://www.w3.org/2000/svg"
   xmlns="http://www.w3.org/2000/svg"
   xmlns:xlink="http://www.w3.org/1999/xlink"
   xmlns:sodipodi="http://sodipodi.sourceforge.net/DTD/sodipodi-0.dtd"
   xmlns:inkscape="http://www.inkscape.org/namespaces/inkscape"
   width="48"
   height="48"
   id="svg5453"
   version="1.1"
   inkscape:version="0.91 r13725"
   sodipodi:docname="evolution.svg">
  <defs
     id="defs5455">
    <linearGradient
       id="linearGradient4829"
       inkscape:collect="always">
      <stop
         id="stop4831"
         offset="0"
         style="stop-color:#197df1;stop-opacity:1" />
      <stop
         id="stop4833"
         offset="1"
         style="stop-color:#20bcfa;stop-opacity:1" />
    </linearGradient>
    <linearGradient
       id="linearGradient4207"
       osb:paint="gradient">
      <stop
         style="stop-color:#3498db;stop-opacity:1;"
         offset="0"
         id="stop3371" />
      <stop
         style="stop-color:#3498db;stop-opacity:0;"
         offset="1"
         id="stop3373" />
    </linearGradient>
    <linearGradient
       gradientTransform="matrix(1.0155171,0,0,0.88638161,-65.086805,59.629401)"
       gradientUnits="userSpaceOnUse"
       y2="502.37723"
       x2="466.48874"
       y1="542.6795"
       x1="466.37592"
       id="linearGradient4243"
       xlink:href="#linearGradient4829"
       inkscape:collect="always" />
    <linearGradient
       id="linearGradient4232">
      <stop
         id="stop4234"
         offset="0"
         style="stop-color:#333333;stop-opacity:1" />
      <stop
         id="stop4236"
         offset="1"
         style="stop-color:#353535;stop-opacity:1" />
    </linearGradient>
    <linearGradient
       id="linearGradient5263-5">
      <stop
         id="stop5265-0"
         style="stop-color:#e9e9e9;stop-opacity:1"
         offset="0" />
      <stop
         id="stop5267-9"
         style="stop-color:#f9f9f9;stop-opacity:1"
         offset="1" />
    </linearGradient>
    <linearGradient
       gradientUnits="userSpaceOnUse"
       y2="564.00525"
       x2="257.50476"
       y1="1.7076157"
       x1="258.65744"
       id="linearGradient6396"
       xlink:href="#linearGradient4232"
       inkscape:collect="always" />
    <linearGradient
       inkscape:collect="always"
       xlink:href="#linearGradient5263-5"
       id="linearGradient4819"
       gradientUnits="userSpaceOnUse"
       x1="258.65744"
       y1="1.7076157"
       x2="257.50476"
       y2="564.00525" />
    <linearGradient
       inkscape:collect="always"
       xlink:href="#linearGradient5263-5"
       id="linearGradient4821"
       gradientUnits="userSpaceOnUse"
       x1="258.65744"
       y1="1.7076157"
       x2="257.50476"
       y2="564.00525" />
    <linearGradient
       inkscape:collect="always"
       xlink:href="#linearGradient5263-5"
       id="linearGradient4823"
       gradientUnits="userSpaceOnUse"
       x1="258.65744"
       y1="1.7076157"
       x2="257.50476"
       y2="564.00525" />
    <linearGradient
       inkscape:collect="always"
       xlink:href="#linearGradient5263-5"
       id="linearGradient4825"
       gradientUnits="userSpaceOnUse"
       x1="258.65744"
       y1="1.7076157"
       x2="257.50476"
       y2="564.00525" />
  </defs>
  <sodipodi:namedview
     id="base"
     pagecolor="#5a5a5a"
     bordercolor="#ffffff"
     borderopacity="1"
     inkscape:pageopacity="0"
     inkscape:pageshadow="2"
     inkscape:zoom="8.4456507"
     inkscape:cx="10.689818"
     inkscape:cy="30.324403"
     inkscape:document-units="px"
     inkscape:current-layer="layer1"
     showgrid="false"
     fit-margin-top="0"
     fit-margin-left="0"
     fit-margin-right="0"
     fit-margin-bottom="0"
     inkscape:window-width="1366"
     inkscape:window-height="633"
     inkscape:window-x="0"
     inkscape:window-y="33"
     inkscape:window-maximized="0"
     inkscape:showpageshadow="false"
     borderlayer="true"
     showguides="false"
     showborder="false">
    <inkscape:grid
       type="xygrid"
       id="grid4063" />
    <sodipodi:guide
       position="1.1650391e-05,47.999996"
       orientation="4,0"
       id="guide4146" />
    <sodipodi:guide
       position="1.1650391e-05,44"
       orientation="0,1"
       id="guide4148"
       inkscape:label=""
       inkscape:color="rgb(77,255,0)" />
    <sodipodi:guide
       position="48.000012,43.999996"
       orientation="-4,0"
       id="guide4150" />
    <sodipodi:guide
       position="20,48.000026"
       orientation="0,-48"
       id="guide4152" />
    <sodipodi:guide
       position="1.1650391e-05,4.0000264"
       orientation="4,0"
       id="guide4154" />
    <sodipodi:guide
       position="35,2.6367188e-05"
       orientation="0,48"
       id="guide4156" />
    <sodipodi:guide
       position="48.000012,2.6367188e-05"
       orientation="-4,0"
       id="guide4158" />
    <sodipodi:guide
       position="48.000012,4.0000264"
       orientation="0,-48"
       id="guide4160" />
    <sodipodi:guide
       position="48.000012,48.000026"
       orientation="0,-4"
       id="guide4162" />
    <sodipodi:guide
       position="44.000012,48.000026"
       orientation="48,0"
       id="guide4164" />
    <sodipodi:guide
       position="44.000012,2.6367188e-05"
       orientation="0,4"
       id="guide4166" />
    <sodipodi:guide
       position="48.000012,2.6367188e-05"
       orientation="-48,0"
       id="guide4168" />
    <sodipodi:guide
       position="4.0000422,48.000026"
       orientation="0,-4"
       id="guide4170" />
    <sodipodi:guide
       position="4.2167969e-05,48.000026"
       orientation="48,0"
       id="guide4172" />
    <sodipodi:guide
       position="4.2167969e-05,2.6367188e-05"
       orientation="0,4"
       id="guide4174" />
    <sodipodi:guide
       position="20,25"
       orientation="-48,0"
       id="guide4176" />
  </sodipodi:namedview>
  <metadata
     id="metadata5458">
    <rdf:RDF>
      <cc:Work
         rdf:about="">
        <dc:format>image/svg+xml</dc:format>
        <dc:type
           rdf:resource="http://purl.org/dc/dcmitype/StillImage" />
        <dc:title />
      </cc:Work>
    </rdf:RDF>
  </metadata>
  <g
     inkscape:label="Layer 1"
     inkscape:groupmode="layer"
     id="layer1"
     transform="translate(-384.57143,-499.798)">
    <g
       id="layer1-5"
       inkscape:label="Layer 1"
       transform="matrix(1.0109246,0,0,1.0109246,-4.0895328,-5.9903398)">
      <g
         id="g63687-1"
         transform="matrix(0.06488556,-0.04557628,-0.04557629,-0.06488558,307.06482,572.09937)" />
      <g
         style="opacity:0.91300001"
         transform="matrix(0.51711642,0,0,0.51711642,209.87057,254.15025)"
         id="g4393-7" />
      <g
         transform="matrix(0.97468474,-0.11344733,0.11344733,0.97468474,-48.817551,59.404662)"
         id="g6423">
        <g
           id="g62989"
           transform="matrix(0.08965014,1.7994648e-4,1.8377961e-4,-0.07824996,386.38244,547.88505)"
           style="fill:url(#linearGradient6396);fill-opacity:1">
          <g
             id="g62991"
             style="fill:url(#linearGradient4825);fill-opacity:1"
             transform="matrix(1.0634691,0,0,1,-1.1424443,0)">
            <g
               id="g62997"
               style="fill:url(#linearGradient4823);fill-opacity:1">
              <g
                 id="g62999"
                 style="fill:url(#linearGradient4821);fill-opacity:1">
                <path
                   d="m 418,467.5 c 0,9.979 8.175,18.289 19,20.12 l 0,27.76 c -10.825,1.831 -19,10.141 -19,20.12 0,9.979 8.175,18.289 19,20.12 l 0,29.38 -24.228,0 c -1.474,-11.318 -9.988,-20 -20.272,-20 -10.284,0 -18.798,8.682 -20.272,20 l -27.456,0 c -1.474,-11.318 -9.988,-20 -20.272,-20 -10.284,0 -18.798,8.682 -20.272,20 l -23.608,0 c -1.832,-10.825 -10.141,-19 -20.12,-19 -9.979,0 -18.288,8.175 -20.12,19 l -27.76,0 c -1.831,-10.825 -10.141,-19 -20.12,-19 -9.979,0 -18.289,8.175 -20.12,19 l -21.76,0 c -1.831,-10.825 -10.141,-19 -20.12,-19 -9.979,0 -18.289,8.175 -20.12,19 l -27.76,0 C 80.789,574.175 72.479,566 62.5,566 c -9.979,0 -18.289,8.175 -20.12,19 L 18,585 18,552.62 c 10.825,-1.832 19,-10.141 19,-20.12 0,-9.979 -8.175,-18.288 -19,-20.12 l 0,-25.426 c 12.279,-0.676 22,-9.572 22,-20.454 0,-10.882 -9.721,-19.778 -22,-20.454 l 0,-25.163 c 11.803,-1.089 21,-9.798 21,-20.383 0,-10.585 -9.197,-19.294 -21,-20.383 l 0,-21.163 C 18.497,358.981 18.996,359 19.5,359 32.479,359 43,349.822 43,338.5 43,327.178 32.479,318 19.5,318 c -0.504,0 -1.003,0.019 -1.5,0.046 l 0,-26.162 c 11.803,-1.09 21,-9.799 21,-20.384 0,-10.585 -9.197,-19.294 -21,-20.384 l 0,-28.344 c 11.318,-1.474 20,-9.988 20,-20.272 0,-10.284 -8.682,-18.798 -20,-20.272 l 0,-27.274 C 30.279,154.278 40,145.382 40,134.5 40,123.618 30.279,114.722 18,114.046 L 18,88.954 C 30.279,88.278 40,79.382 40,68.5 40,57.618 30.279,48.722 18,48.046 L 18,21 40.228,21 C 40.079,22.143 40,23.311 40,24.5 40,37.479 49.178,48 60.5,48 71.822,48 81,37.479 81,24.5 81,23.311 80.921,22.143 80.772,21 l 27.456,0 C 108.079,22.143 108,23.311 108,24.5 108,37.479 117.178,48 128.5,48 139.822,48 149,37.479 149,24.5 c 0,-1.189 -0.079,-2.357 -0.228,-3.5 l 21.456,0 C 170.079,22.143 170,23.311 170,24.5 170,37.479 179.178,48 190.5,48 201.822,48 211,37.479 211,24.5 c 0,-1.189 -0.079,-2.357 -0.228,-3.5 l 27.456,0 C 238.079,22.143 238,23.311 238,24.5 238,37.479 247.178,48 258.5,48 269.822,48 279,37.479 279,24.5 c 0,-1.189 -0.079,-2.357 -0.228,-3.5 l 23.344,0 C 302.041,21.821 302,22.655 302,23.5 302,36.479 311.178,47 322.5,47 333.822,47 343,36.479 343,23.5 c 0,-0.845 -0.041,-1.679 -0.116,-2.5 l 27.232,0 C 370.041,21.821 370,22.655 370,23.5 370,36.479 379.178,47 390.5,47 401.822,47 411,36.479 411,23.5 c 0,-0.845 -0.041,-1.679 -0.116,-2.5 l 26.116,0 0,27.116 c -11.803,1.09 -21,9.799 -21,20.384 0,10.585 9.197,19.294 21,20.384 l 0,27.232 c -11.803,1.09 -21,9.799 -21,20.384 0,10.585 9.197,19.294 21,20.384 l 0,24.232 c -11.803,1.09 -21,9.799 -21,20.384 0,10.585 9.197,19.294 21,20.384 l 0,27.232 c -11.803,1.09 -21,9.799 -21,20.384 0,10.585 9.197,19.294 21,20.384 l 0,23.233 c -11.803,1.089 -21,9.798 -21,20.383 0,10.585 9.197,19.294 21,20.383 l 0,27.234 c -11.803,1.089 -21,9.798 -21,20.383 0,10.585 9.197,19.294 21,20.383 l 0,25.497 c -10.825,1.831 -19,10.141 -19,20.12"
                   style="fill:url(#linearGradient4819);fill-opacity:1;stroke:none"
                   id="path63007"
                   inkscape:connector-curvature="0" />
              </g>
            </g>
          </g>
        </g>
        <rect
           style="opacity:1;fill:url(#linearGradient4243);fill-opacity:1;stroke:none;stroke-width:0.201616;stroke-linecap:round;stroke-linejoin:round;stroke-miterlimit:4;stroke-dasharray:none;stroke-opacity:1"
           id="rect4221"
           width="31.074825"
           height="36.075733"
           x="393.59326"
           y="504.85712"
           ry="0.531829"
           transform="matrix(0.99999799,0.0020072,-0.00234862,0.99999724,0,0)" />
      </g>
    </g>
    <g
       transform="matrix(0.06488556,-0.04557628,-0.04557629,-0.06488558,307.06482,572.09937)"
       id="g63687" />
    <g
       id="g4393"
       transform="matrix(0.51711642,0,0,0.51711642,209.87057,254.15025)"
       style="opacity:0.91300001" />
    <g
       transform="matrix(0.66009302,-0.15497356,0.15497356,0.66009302,-51.018794,242.03954)"
       id="g8354"
       style="fill:#233f57;fill-opacity:1" />
    <g
       id="layer1-9"
       inkscape:label="Layer 1"
       transform="translate(47.387173,-2.2197145)">
      <g
         id="g63687-5"
         transform="matrix(0.06488556,-0.04557628,-0.04557629,-0.06488558,307.06482,572.09937)" />
      <g
         style="opacity:0.91300001"
         transform="matrix(0.51711642,0,0,0.51711642,209.87057,254.15025)"
         id="g4393-1" />
      <g
         transform="matrix(0.97468474,-0.11344733,0.11344733,0.97468474,-48.817551,59.404662)"
         id="g6423-1">
        <g
           id="g5435"
           transform="matrix(1.2939889,0,0,1.2939889,-172.0669,-155.40694)">
          <g
             style="opacity:1;fill:#ffffff;fill-opacity:1;stroke:#000000;stroke-opacity:0.8"
             transform="matrix(-0.00521143,9.3111025e-4,9.3111025e-4,0.00521143,428.20492,546.52574)"
             id="g10822-9-7-95">
            <g
               style="display:inline;fill:#ffffff;fill-opacity:1"
               id="g5043-1"
               transform="matrix(-7.0732846,0,0,7.0017718,2712.2317,-7878.2911)" />
          </g>
          <g
             transform="matrix(0.78227808,0.09105237,-0.09105237,0.78227808,174.10419,74.237534)"
             id="layer1-95"
             inkscape:label="Layer 1">
            <g
               id="g63687-2"
               transform="matrix(0.06488556,-0.04557628,-0.04557629,-0.06488558,307.06482,572.09937)" />
            <g
               style="opacity:0.91300001"
               transform="matrix(0.51711642,0,0,0.51711642,209.87057,254.15025)"
               id="g4393-9" />
          </g>
        </g>
      </g>
    </g>
  </g>
</svg>
